svg/set/BLC/WM.svg

<?xml version="1.0" encoding="UTF-8" standalone="no"?>
<svg
   width="1000"
   height="1000"
   viewBox="0 0 1000 1000"
   version="1.1"
   xml:space="preserve"
   style="clip-rule:evenodd;fill-rule:evenodd;stroke-linejoin:round;stroke-miterlimit:2"
   id="svg3"
   xmlns="http://www.w3.org/2000/svg"
   xmlns:svg="http://www.w3.org/2000/svg"><defs
   id="defs3" />
    <g
   transform="translate(-4831.9967)"
   id="g3">
        <g
   id="WM"
   transform="translate(-0.333333)">
            <rect
   x="4832.3301"
   y="0"
   width="1000"
   height="1000"
   style="fill:none"
   id="rect1" />
            <g
   transform="translate(4832.33)"
   id="g1">
                <path
   d="m 500.26,896.664 c 0,0 -4.004,7.977 -20.458,14.958 -16.454,6.98 -27.424,28.991 -27.922,70.34 0,0 -103.711,-63.215 -99.224,-172.056 0,0 -41.384,-9.618 -97.727,39.245 0,0 7.479,-62.326 -3.989,-99.722 0,0 -9.473,-15.955 -9.972,-29.418 0,0 -6.482,-26.924 -3.49,-37.395 0,0 -31.243,2.493 -99.223,-41.385 0,0 34.733,-26.925 33.735,-38.891 -0.997,-11.967 6.482,-44.376 15.956,-62.825 0,0 -41.385,-16.631 -64.819,-88.254 0,0 40.886,-1.319 51.356,-44.199 0,0 -35.401,-47.368 -46.37,-88.254 0,0 -1.496,-17.451 61.329,-36.897 0,0 -43.379,-84.265 -41.385,-120.663 0,0 43.878,-29.917 126.148,-12.964 0,0 -1.994,-38.393 29.418,-116.674 0,0 68.31,35.899 117.672,108.696 0,0 41.722,-107.734 80.458,-137.784 0,0 42.65,39.953 80.248,139.25 0,0 29.283,-55.913 116.588,-109.265 0,0 27.765,59.034 28.734,114.511 0,0 70.97,-16.733 128.044,14.484 0,0 -1.52,48.13 -41.078,119.795 0,0 45.292,13.759 63.064,34.972 0,0 -14.333,59.335 -48.158,88.29 0,0 3.44,42.142 52.745,46.728 0,0 -21.213,68.798 -66.505,87.144 0,0 12.04,19.493 13.76,46.439 0,0 -4.366,24.339 12.524,34.551 l 25.334,21.996 c 0,0 -55.938,40.493 -98.453,40.493 0,0 1.394,11.152 -5.575,39.03 0,0 -10.455,28.575 -10.455,37.636 0,0 -14.636,53.665 -2.09,91.301 0,0 -71.09,-52.969 -99.665,-39.03 0,0 13.939,94.684 -97.574,171.115 0,0 -5.351,-62.218 -35.476,-73.679 0,0 -4.557,1.647 -17.505,-11.619 z M 608.538,336.61 C 750.478,262.869 683.064,76.821 683.064,76.821 570.352,155.72 562.165,289.062 562.165,289.062 c 28.345,20.203 46.373,47.548 46.373,47.548 z m -115.75,297.643 c 0,0 -20.949,-1.209 -40.288,-13.296 0,0 -77.353,108.376 -70.907,194.592 6.446,86.217 49.957,109.987 49.957,109.987 0,0 12.087,-28.202 41.497,-43.914 0,0 12.49,-4.029 19.741,-29.813 z m -306.386,1.227 c 0,0 29.02,21.15 65.417,17.215 0,0 9.398,-69.351 135.779,-105.749 0,0 -17.522,-14.756 -18.611,-82.632 0,0 -133.399,20.166 -158.976,99.847 0,0 -7.378,18.199 -5.41,36.889 0,0 -1.968,28.036 -18.199,34.43 z M 630.614,391.236 c 176.161,-58.621 191.595,-209.693 191.595,-209.693 -49.467,-21.986 -103.431,0.332 -103.431,0.332 2.998,127.248 -101.933,172.386 -101.933,172.386 16.989,29.98 13.769,36.975 13.769,36.975 z m 10.174,55.411 C 797.364,462.975 843.871,327.9 843.871,327.9 821.958,306.94 785.278,306.463 785.278,306.463 730.019,389.828 635.457,409.958 635.457,409.958 c 5.644,8.153 5.331,36.689 5.331,36.689 z M 371.913,391.236 c 0,0 -3.22,-6.995 13.769,-36.975 0,0 -104.931,-45.138 -101.932,-172.386 0,0 -53.965,-22.318 -103.432,-0.332 0,0 15.434,151.072 191.595,209.693 z m 139.951,243.017 v 217.556 c 7.252,25.784 19.742,29.813 19.742,29.813 29.41,15.712 41.496,43.914 41.496,43.914 0,0 43.512,-23.77 49.958,-109.987 6.446,-86.216 -70.907,-194.592 -70.907,-194.592 -19.339,12.087 -40.289,13.296 -40.289,13.296 z M 457.923,278.642 c 42.782,-15.666 87.973,0 87.973,0 -3.615,-25.909 16.269,-74.114 16.269,-74.114 C 554.332,111.735 501.72,49.069 501.72,49.069 c -51.406,59.653 -61.873,156.062 -61.873,156.062 12.653,12.653 18.076,73.511 18.076,73.511 z m -62.847,57.968 c 0,0 18.027,-27.345 46.373,-47.548 0,0 -8.187,-133.342 -120.899,-212.241 0,0 -67.414,186.048 74.526,259.789 z m -31.2,110.037 c 0,0 -0.313,-28.536 5.331,-36.689 0,0 -94.562,-20.13 -149.821,-103.495 0,0 -36.68,0.477 -58.593,21.437 0,0 46.507,135.075 203.083,118.747 z M 287.281,794.53 c 0,0 33.279,-21.804 78.038,-11.971 0,0 5.427,-85.121 70.838,-172.29 0,0 -32.492,-23.469 -38.05,-45.272 0,0 -109.445,29.071 -122.698,83.794 0,0 -15.818,29.071 -1.71,82.511 0,0 12.2,11.086 13.582,63.228 z m 530.76,-159.05 c -16.231,-6.394 -18.198,-34.43 -18.198,-34.43 1.967,-18.69 -5.411,-36.889 -5.411,-36.889 -25.576,-79.681 -158.975,-99.847 -158.975,-99.847 -1.09,67.876 -18.612,82.632 -18.612,82.632 126.381,36.398 135.779,105.749 135.779,105.749 36.398,3.935 65.417,-17.215 65.417,-17.215 z M 707.365,462.971 c 67.763,32.679 82.661,55.267 82.661,55.267 30.277,-4.325 53.845,-48.539 53.845,-48.539 -28.334,-10.573 -41.35,-53.345 -41.35,-53.345 -39.408,41.33 -95.156,46.617 -95.156,46.617 z M 500.329,295.503 c -62.251,0 -112.792,70.044 -112.792,156.318 0,86.273 50.541,156.317 112.792,156.317 62.252,0 112.792,-70.044 112.792,-156.317 0,-86.274 -50.54,-156.318 -112.792,-156.318 z M 297.253,462.971 c 0,0 -55.748,-5.287 -95.156,-46.617 0,0 -13.015,42.772 -41.35,53.345 0,0 23.568,44.214 53.845,48.539 0,0 14.898,-22.588 82.661,-55.267 z m 420.19,331.559 c 1.382,-52.142 13.582,-63.228 13.582,-63.228 14.108,-53.44 -1.71,-82.511 -1.71,-82.511 -13.253,-54.723 -122.698,-83.794 -122.698,-83.794 -5.558,21.803 -38.049,45.272 -38.049,45.272 65.41,87.169 70.837,172.29 70.837,172.29 44.759,-9.833 78.038,11.971 78.038,11.971 z"
   id="path1" />
            </g>
            <g
   transform="matrix(0.998991,0,0,0.73932,4706.57,-73.393)"
   id="g2">
                <path
   d="m 627.469,458.789 c 78.315,0 141.897,112.519 141.897,251.11 0,138.591 -63.582,251.11 -141.897,251.11 -78.315,0 -141.897,-112.519 -141.897,-251.11 0,-138.591 63.582,-251.11 141.897,-251.11 z m -0.743,40.178 c -62.315,0 -112.906,94.74 -112.906,211.434 0,116.694 50.591,211.434 112.906,211.434 62.314,0 112.905,-94.74 112.905,-211.434 0,-116.694 -50.591,-211.434 -112.905,-211.434 z"
   id="path2" />
            </g>
        </g>
    </g>
</svg>

<?xml version="1.0" encoding="UTF-8" standalone="no"?>
<!DOCTYPE svg PUBLIC "-//W3C//DTD SVG 1.1//EN" "http://www.w3.org/Graphics/SVG/1.1/DTD/svg11.dtd">
<svg width="100%" height="100%" viewBox="0 0 1000 1000" version="1.1" xmlns="http://www.w3.org/2000/svg" xmlns:xlink="http://www.w3.org/1999/xlink" xml:space="preserve" xmlns:serif="http://www.serif.com/" style="fill-rule:evenodd;clip-rule:evenodd;stroke-linejoin:round;stroke-miterlimit:2;">
    <g transform="matrix(1,0,0,1,-4832,0)">
        <g id="WM" transform="matrix(1,0,0,1,-0.333333,0)">
            <rect x="4832.33" y="0" width="1000" height="1000" style="fill:none;"/>
            <g transform="matrix(1,0,0,1,4832.33,0)">
                <path d="M500.26,896.664C500.26,896.664 496.256,904.641 479.802,911.622C463.348,918.602 452.378,940.613 451.88,981.962C451.88,981.962 348.169,918.747 352.656,809.906C352.656,809.906 311.272,800.288 254.929,849.151C254.929,849.151 262.408,786.825 250.94,749.429C250.94,749.429 241.467,733.474 240.968,720.011C240.968,720.011 234.486,693.087 237.478,682.616C237.478,682.616 206.235,685.109 138.255,641.231C138.255,641.231 172.988,614.306 171.99,602.34C170.993,590.373 178.472,557.964 187.946,539.515C187.946,539.515 146.561,522.884 123.127,451.261C123.127,451.261 164.013,449.942 174.483,407.062C174.483,407.062 139.082,359.694 128.113,318.808C128.113,318.808 126.617,301.357 189.442,281.911C189.442,281.911 146.063,197.646 148.057,161.248C148.057,161.248 191.935,131.331 274.205,148.284C274.205,148.284 272.211,109.891 303.623,31.61C303.623,31.61 371.933,67.509 421.295,140.306C421.295,140.306 463.017,32.572 501.753,2.522C501.753,2.522 544.403,42.475 582.001,141.772C582.001,141.772 611.284,85.859 698.589,32.507C698.589,32.507 726.354,91.541 727.323,147.018C727.323,147.018 798.293,130.285 855.367,161.502C855.367,161.502 853.847,209.632 814.289,281.297C814.289,281.297 859.581,295.056 877.353,316.269C877.353,316.269 863.02,375.604 829.195,404.559C829.195,404.559 832.635,446.701 881.94,451.287C881.94,451.287 860.727,520.085 815.435,538.431C815.435,538.431 827.475,557.924 829.195,584.87C829.195,584.87 824.829,609.209 841.719,619.421L867.053,641.417C867.053,641.417 811.115,681.91 768.6,681.91C768.6,681.91 769.994,693.062 763.025,720.94C763.025,720.94 752.57,749.515 752.57,758.576C752.57,758.576 737.934,812.241 750.48,849.877C750.48,849.877 679.39,796.908 650.815,810.847C650.815,810.847 664.754,905.531 553.241,981.962C553.241,981.962 547.89,919.744 517.765,908.283C517.765,908.283 513.208,909.93 500.26,896.664ZM608.538,336.61C750.478,262.869 683.064,76.821 683.064,76.821C570.352,155.72 562.165,289.062 562.165,289.062C590.51,309.265 608.538,336.61 608.538,336.61ZM492.788,634.253C492.788,634.253 471.839,633.044 452.5,620.957C452.5,620.957 375.147,729.333 381.593,815.549C388.039,901.766 431.55,925.536 431.55,925.536C431.55,925.536 443.637,897.334 473.047,881.622C473.047,881.622 485.537,877.593 492.788,851.809L492.788,634.253ZM186.402,635.48C186.402,635.48 215.422,656.63 251.819,652.695C251.819,652.695 261.217,583.344 387.598,546.946C387.598,546.946 370.076,532.19 368.987,464.314C368.987,464.314 235.588,484.48 210.011,564.161C210.011,564.161 202.633,582.36 204.601,601.05C204.601,601.05 202.633,629.086 186.402,635.48ZM630.614,391.236C806.775,332.615 822.209,181.543 822.209,181.543C772.742,159.557 718.778,181.875 718.778,181.875C721.776,309.123 616.845,354.261 616.845,354.261C633.834,384.241 630.614,391.236 630.614,391.236ZM640.788,446.647C797.364,462.975 843.871,327.9 843.871,327.9C821.958,306.94 785.278,306.463 785.278,306.463C730.019,389.828 635.457,409.958 635.457,409.958C641.101,418.111 640.788,446.647 640.788,446.647ZM371.913,391.236C371.913,391.236 368.693,384.241 385.682,354.261C385.682,354.261 280.751,309.123 283.75,181.875C283.75,181.875 229.785,159.557 180.318,181.543C180.318,181.543 195.752,332.615 371.913,391.236ZM511.864,634.253L511.864,851.809C519.116,877.593 531.606,881.622 531.606,881.622C561.016,897.334 573.102,925.536 573.102,925.536C573.102,925.536 616.614,901.766 623.06,815.549C629.506,729.333 552.153,620.957 552.153,620.957C532.814,633.044 511.864,634.253 511.864,634.253ZM457.923,278.642C500.705,262.976 545.896,278.642 545.896,278.642C542.281,252.733 562.165,204.528 562.165,204.528C554.332,111.735 501.72,49.069 501.72,49.069C450.314,108.722 439.847,205.131 439.847,205.131C452.5,217.784 457.923,278.642 457.923,278.642ZM395.076,336.61C395.076,336.61 413.103,309.265 441.449,289.062C441.449,289.062 433.262,155.72 320.55,76.821C320.55,76.821 253.136,262.869 395.076,336.61ZM363.876,446.647C363.876,446.647 363.563,418.111 369.207,409.958C369.207,409.958 274.645,389.828 219.386,306.463C219.386,306.463 182.706,306.94 160.793,327.9C160.793,327.9 207.3,462.975 363.876,446.647ZM287.281,794.53C287.281,794.53 320.56,772.726 365.319,782.559C365.319,782.559 370.746,697.438 436.157,610.269C436.157,610.269 403.665,586.8 398.107,564.997C398.107,564.997 288.662,594.068 275.409,648.791C275.409,648.791 259.591,677.862 273.699,731.302C273.699,731.302 285.899,742.388 287.281,794.53ZM818.041,635.48C801.81,629.086 799.843,601.05 799.843,601.05C801.81,582.36 794.432,564.161 794.432,564.161C768.856,484.48 635.457,464.314 635.457,464.314C634.367,532.19 616.845,546.946 616.845,546.946C743.226,583.344 752.624,652.695 752.624,652.695C789.022,656.63 818.041,635.48 818.041,635.48ZM707.365,462.971C775.128,495.65 790.026,518.238 790.026,518.238C820.303,513.913 843.871,469.699 843.871,469.699C815.537,459.126 802.521,416.354 802.521,416.354C763.113,457.684 707.365,462.971 707.365,462.971ZM500.329,295.503C438.078,295.503 387.537,365.547 387.537,451.821C387.537,538.094 438.078,608.138 500.329,608.138C562.581,608.138 613.121,538.094 613.121,451.821C613.121,365.547 562.581,295.503 500.329,295.503ZM297.253,462.971C297.253,462.971 241.505,457.684 202.097,416.354C202.097,416.354 189.082,459.126 160.747,469.699C160.747,469.699 184.315,513.913 214.592,518.238C214.592,518.238 229.49,495.65 297.253,462.971ZM717.443,794.53C718.825,742.388 731.025,731.302 731.025,731.302C745.133,677.862 729.315,648.791 729.315,648.791C716.062,594.068 606.617,564.997 606.617,564.997C601.059,586.8 568.568,610.269 568.568,610.269C633.978,697.438 639.405,782.559 639.405,782.559C684.164,772.726 717.443,794.53 717.443,794.53Z"/>
            </g>
            <g transform="matrix(0.998991,0,0,0.73932,4706.57,-73.393)">
                <path d="M627.469,458.789C705.784,458.789 769.366,571.308 769.366,709.899C769.366,848.49 705.784,961.009 627.469,961.009C549.154,961.009 485.572,848.49 485.572,709.899C485.572,571.308 549.154,458.789 627.469,458.789ZM626.726,498.967C564.411,498.967 513.82,593.707 513.82,710.401C513.82,827.095 564.411,921.835 626.726,921.835C689.04,921.835 739.631,827.095 739.631,710.401C739.631,593.707 689.04,498.967 626.726,498.967Z"/>
            </g>
        </g>
    </g>
</svg>
